;FLAVOR:UltiGCode
;TIME:8391
;MATERIAL:15270
;MATERIAL2:0
;NOZZLE_DIAMETER:0.4
;Generated with Cura_SteamEngine master

;LAYER_COUNT:127
;LAYER:0
M107
G0 F4500 X82.501 Y136.106 Z0.27
;TYPE:SUPPORT
G1 F1800 X82.658 Y136.014 E0.0172
G1 X82.88 Y135.914 E0.04021
G1 X83.081 Y135.853 E0.06006
G1 X83.251 Y135.82 E0.07642
G1 X83.408 Y135.802 E0.09135
G1 X83.58 Y135.803 E0.10761
G1 X83.875 Y135.842 E0.13573
G1 X84.059 Y135.894 E0.1538
G1 X84.23 Y135.959 E0.17108
G1 X84.335 Y136.008 E0.18203
G1 X84.493 Y136.103 E0.19946
G1 X84.664 Y136.231 E0.21964
G1 X84.812 Y136.373 E0.23902
G1 X84.923 Y136.509 E0.25561
G1 X85.027 Y136.661 E0.27302
G1 X85.122 Y136.839 E0.29208
G1 X85.194 Y137.031 E0.31146
G1 X85.245 Y137.206 E0.32869
G1 X85.275 Y137.393 E0.34659
G1 X85.289 Y137.602 E0.36638
G1 X85.289 Y138.788 E0.47846
G1 X81.711 Y138.788 E0.81658
G1 X81.711 Y137.67 E0.92223
G1 X81.725 Y137.387 E0.94901
G1 X81.754 Y137.206 E0.96633
G1 X81.814 Y136.996 E0.98697
G1 X81.894 Y136.813 E1.00584
G1 X81.981 Y136.649 E1.02338
G1 X82.085 Y136.495 E1.04095
G1 X82.223 Y136.339 E1.06063
G1 X82.338 Y136.235 E1.07528
G1 X82.501 Y136.106 E1.09492
G0 F4500 X83.988 Y136.02
G1 F1800 X83.988 Y138.648 E1.34327
G0 F4500 X85.148 Y137.647
G1 F1800 X81.852 Y137.647 E1.65474
G10
G0 F4500 X85.98 Y139.455
G0 X137.02 Y139.455
G0 X137.528 Y138.947
G0 X137.714 Y137.586
G11
G1 F1800 X137.725 Y137.384 E1.67386
G1 X137.753 Y137.218 E1.68977
G1 X137.806 Y137.025 E1.70868
G1 X137.885 Y136.827 E1.72883
G1 X137.98 Y136.65 E1.74781
G1 X138.083 Y136.497 E1.76524
G1 X138.17 Y136.396 E1.77784
G1 X138.364 Y136.21 E1.80323
G1 X138.501 Y136.106 E1.81949
G1 X138.666 Y136.009 E1.83758
G1 X138.845 Y135.927 E1.85618
G1 X139.065 Y135.857 E1.878
G1 X139.198 Y135.828 E1.89086
G1 X139.447 Y135.802 E1.91452
G1 X139.612 Y135.804 E1.93012
G1 X139.834 Y135.832 E1.95126
G1 X139.947 Y135.859 E1.96224
G1 X140.166 Y135.93 E1.984
G1 X140.33 Y136.007 E2.00112
G1 X140.509 Y136.115 E2.02087
G1 X140.642 Y136.216 E2.03665
G1 X140.795 Y136.357 E2.05632
G1 X140.948 Y136.543 E2.07908
G1 X141.043 Y136.689 E2.09554
G1 X141.131 Y136.865 E2.11413
G1 X141.2 Y137.045 E2.13235
G1 X141.243 Y137.198 E2.14737
G1 X141.278 Y137.405 E2.16721
G1 X141.289 Y137.602 E2.18585
G1 X141.289 Y138.788 E2.29793
G1 X137.711 Y138.788 E2.63605
G1 X137.714 Y137.586 E2.74964
G0 F4500 X137.854 Y137.647
G1 F1800 X141.149 Y137.647 E3.06102
G0 F4500 X139.98 Y138.648
G1 F1800 X139.98 Y136.016 E3.30974
G10
G0 F4500 X140.084 Y135.712
G0 X140.471 Y134.56
G0 X140.374 Y134.443
G0 X140.348 Y134.539
;TYPE:WALL-INNER
G11
G1 F1800 X140.013 Y134.464 E3.34218
G1 X139.671 Y134.427 E3.37469
G1 X139.329 Y134.427 E3.40701
G1 X138.987 Y134.464 E3.43952
G1 X138.652 Y134.539 E3.47196
G1 X138.329 Y134.648 E3.50417
G1 X138.018 Y134.791 E3.53652
G1 X137.725 Y134.967 E3.56882
G1 X137.45 Y135.175 E3.6014
G1 X137.202 Y135.412 E3.63382
G1 X136.981 Y135.672 E3.66607
G1 X136.788 Y135.956 E3.69852
G1 X136.628 Y136.258 E3.73081
G1 X136.501 Y136.577 E3.76326
G1 X136.409 Y136.907 E3.79563
G1 X136.353 Y137.245 E3.82801
G1 X136.336 Y137.574 E3.85914
G1 X136.336 Y138.263 E3.92425
G1 X86.664 Y138.263 E8.61826
G1 X86.664 Y137.574 E8.68337
G1 X86.647 Y137.245 E8.7145
G1 X86.591 Y136.907 E8.74687
G1 X86.499 Y136.577 E8.77925
G1 X86.372 Y136.258 E8.8117
G1 X86.212 Y135.956 E8.84399
G1 X86.019 Y135.672 E8.87644
G1 X85.797 Y135.411 E8.90882
G1 X85.549 Y135.175 E8.94117
G1 X85.275 Y134.967 E8.97368
G1 X84.982 Y134.791 E9.00598
G1 X84.671 Y134.648 E9.03833
G1 X84.348 Y134.539 E9.07054
G1 X84.013 Y134.464 E9.10298
G1 X83.671 Y134.427 E9.13549
G1 X83.329 Y134.427 E9.16781
G1 X82.987 Y134.464 E9.20032
G1 X82.652 Y134.539 E9.23276
G1 X82.329 Y134.648 E9.26497
G1 X82.018 Y134.791 E9.29732
G1 X81.725 Y134.967 E9.32962
G1 X81.451 Y135.175 E9.36213
G1 X81.203 Y135.411 E9.39448
G1 X80.981 Y135.672 E9.42686
G1 X80.788 Y135.956 E9.45931
G1 X80.628 Y136.258 E9.49161
G1 X80.501 Y136.577 E9.52405
G1 X80.409 Y136.907 E9.55643
G1 X80.353 Y137.245 E9.5888
G1 X80.336 Y137.574 E9.61994
G1 X80.336 Y139.36 E9.78871
G1 X80.327 Y139.536 E9.80537
G1 X80.304 Y139.676 E9.81877
G1 X80.265 Y139.821 E9.83296
G1 X80.212 Y139.957 E9.84676
G1 X80.148 Y140.081 E9.85994
G1 X80.067 Y140.205 E9.87394
G1 X79.978 Y140.313 E9.88717
G1 X79.864 Y140.426 E9.90233
G1 X79.766 Y140.504 E9.91417
G1 X79.63 Y140.59 E9.92938
G1 X79.497 Y140.657 E9.94345
G1 X79.378 Y140.701 E9.95544
G1 X79.225 Y140.74 E9.97036
G1 X79.083 Y140.761 E9.98393
G1 X78.989 Y140.765 E9.99282
G1 X78.936 Y140.766 E9.99783
G1 X78.784 Y140.756 E10.01222
G1 X78.691 Y140.74 E10.02114
G1 X78.691 Y140.687 E10.02615
G1 X78.691 Y82.233 E15.55005
G1 X102.475 Y82.233 E17.79764
G1 X102.475 Y96.213 E19.11875
G1 X120.525 Y96.213 E20.82447
G1 X120.525 Y82.233 E22.14558
G1 X144.309 Y82.233 E24.39317
G1 X144.309 Y140.687 E29.91707
G1 X144.309 Y140.74 E29.92208
G1 X144.216 Y140.756 E29.931
G1 X144.064 Y140.766 E29.9454
G1 X144.011 Y140.765 E29.9504
G1 X143.917 Y140.761 E29.9593
G1 X143.775 Y140.74 E29.97286
G1 X143.622 Y140.701 E29.98778
G1 X143.503 Y140.657 E29.99977
G1 X143.37 Y140.59 E30.01384
G1 X143.234 Y140.504 E30.02905
G1 X143.136 Y140.426 E30.04089
G1 X143.022 Y140.313 E30.05606
G1 X142.933 Y140.205 E30.06928
G1 X142.852 Y140.081 E30.08328
G1 X142.788 Y139.957 E30.09646
G1 X142.735 Y139.821 E30.11026
G1 X142.696 Y139.676 E30.12445
G1 X142.673 Y139.536 E30.13785
G1 X142.664 Y139.36 E30.15451
G1 X142.664 Y137.574 E30.32328
G1 X142.647 Y137.245 E30.35442
G1 X142.591 Y136.907 E30.38679
G1 X142.499 Y136.577 E30.41917
G1 X142.372 Y136.258 E30.45161
G1 X142.212 Y135.956 E30.48391
G1 X142.019 Y135.673 E30.51628
G1 X141.798 Y135.412 E30.5486
G1 X141.549 Y135.175 E30.58108
G1 X141.275 Y134.967 E30.61359
G1 X140.982 Y134.791 E30.64589
G1 X140.671 Y134.648 E30.67824
G1 X140.348 Y134.539 E30.71046
G0 F4500 X140.374 Y134.443
G0 X125.874 Y91.232
G0 X125.848 Y91.136
G1 F1800 X126.171 Y91.027 E30.74267
G1 X126.482 Y90.884 E30.77502
G1 X126.775 Y90.708 E30.80732
G1 X127.049 Y90.5 E30.83983
G1 X127.297 Y90.264 E30.87218
G1 X127.519 Y90.003 E30.90456
G1 X127.712 Y89.719 E30.93701
G1 X127.872 Y89.417 E30.9693
G1 X127.999 Y89.098 E31.00175
G1 X128.091 Y88.768 E31.03412
G1 X128.147 Y88.43 E31.0665
G1 X128.164 Y88.088 E31.09886
G1 X128.147 Y87.745 E31.13131
G1 X128.091 Y87.407 E31.16369
G1 X127.999 Y87.077 E31.19606
G1 X127.872 Y86.758 E31.22851
G1 X127.712 Y86.456 E31.26081
G1 X127.519 Y86.173 E31.29318
G1 X127.298 Y85.912 E31.3255
G1 X127.049 Y85.675 E31.35798
G1 X126.775 Y85.467 E31.39049
G1 X126.482 Y85.291 E31.42279
G1 X126.171 Y85.148 E31.45514
G1 X125.848 Y85.039 E31.48735
G1 X125.513 Y84.964 E31.51979
G1 X125.172 Y84.927 E31.55221
G1 X124.837 Y84.926 E31.58386
G1 X124.487 Y84.964 E31.61713
G1 X124.152 Y85.039 E31.64957
G1 X123.829 Y85.148 E31.68179
G1 X123.518 Y85.291 E31.71414
G1 X123.225 Y85.467 E31.74644
G1 X122.951 Y85.675 E31.77895
G1 X122.702 Y85.912 E31.81143
G1 X122.481 Y86.173 E31.84375
G1 X122.288 Y86.456 E31.87612
G1 X122.128 Y86.758 E31.90842
G1 X122.001 Y87.077 E31.94086
G1 X121.909 Y87.407 E31.97324
G1 X121.853 Y87.745 E32.00561
G1 X121.836 Y88.088 E32.03807
G1 X121.853 Y88.43 E32.07043
G1 X121.909 Y88.768 E32.1028
G1 X122.001 Y89.098 E32.13518
G1 X122.128 Y89.417 E32.16762
G1 X122.288 Y89.719 E32.19992
G1 X122.481 Y90.003 E32.23237
G1 X122.703 Y90.264 E32.26475
G1 X122.951 Y90.5 E32.2971
G1 X123.225 Y90.708 E32.32961
G1 X123.518 Y90.884 E32.36191
G1 X123.829 Y91.027 E32.39426
G1 X124.152 Y91.136 E32.42647
G1 X124.487 Y91.211 E32.45891
G1 X124.829 Y91.248 E32.49142
G1 X125.171 Y91.248 E32.52374
G1 X125.513 Y91.211 E32.55625
G1 X125.848 Y91.136 E32.58869
G0 F4500 X125.874 Y91.232
G0 X120.553 Y96.241
G0 X102.447 Y96.241
G0 X101.246 Y88.44
G0 X101.147 Y88.43
G1 F1800 X101.164 Y88.088 E32.62105
G1 X101.147 Y87.745 E32.6535
G1 X101.091 Y87.407 E32.68588
G1 X100.999 Y87.077 E32.71825
G1 X100.872 Y86.758 E32.7507
G1 X100.712 Y86.456 E32.78299
G1 X100.519 Y86.173 E32.81536
G1 X100.298 Y85.912 E32.84768
G1 X100.049 Y85.675 E32.88017
G1 X99.775 Y85.467 E32.91268
G1 X99.482 Y85.291 E32.94498
G1 X99.171 Y85.148 E32.97732
G1 X98.848 Y85.039 E33.00954
G1 X98.513 Y84.964 E33.04198
G1 X98.172 Y84.927 E33.07439
G1 X97.837 Y84.926 E33.10605
G1 X97.487 Y84.964 E33.13932
G1 X97.152 Y85.039 E33.17176
G1 X96.829 Y85.148 E33.20398
G1 X96.518 Y85.291 E33.23632
G1 X96.225 Y85.467 E33.26862
G1 X95.951 Y85.675 E33.30113
G1 X95.702 Y85.912 E33.33362
G1 X95.481 Y86.173 E33.36594
G1 X95.288 Y86.456 E33.39831
G1 X95.128 Y86.758 E33.4306
G1 X95.001 Y87.077 E33.46305
G1 X94.909 Y87.407 E33.49542
G1 X94.853 Y87.745 E33.5278
G1 X94.836 Y88.088 E33.56025
G1 X94.853 Y88.43 E33.59261
G1 X94.909 Y88.768 E33.62499
G1 X95.001 Y89.098 E33.65736
G1 X95.128 Y89.417 E33.68981
G1 X95.288 Y89.719 E33.72211
G1 X95.481 Y90.003 E33.75456
G1 X95.703 Y90.264 E33.78694
G1 X95.951 Y90.5 E33.81929
G1 X96.225 Y90.708 E33.8518
G1 X96.518 Y90.884 E33.8841
G1 X96.829 Y91.027 E33.91644
G1 X97.152 Y91.136 E33.94866
G1 X97.487 Y91.211 E33.9811
G1 X97.829 Y91.248 E34.01361
G1 X98.171 Y91.248 E34.04593
G1 X98.513 Y91.211 E34.07843
G1 X98.848 Y91.136 E34.11087
G1 X99.171 Y91.027 E34.14309
G1 X99.482 Y90.884 E34.17544
G1 X99.775 Y90.708 E34.20774
G1 X100.049 Y90.5 E34.24025
G1 X100.297 Y90.264 E34.2726
G1 X100.519 Y90.003 E34.30498
G1 X100.712 Y89.719 E34.33743
G1 X100.872 Y89.417 E34.36972
G1 X100.999 Y89.098 E34.40217
G1 X101.091 Y88.768 E34.43454
G1 X101.147 Y88.43 E34.46692
G0 F4500 X100.823 Y88.395
;TYPE:WALL-OUTER
G1 F1800 X100.839 Y88.088 E34.49597
G1 X100.823 Y87.78 E34.52512
G1 X100.773 Y87.477 E34.55414
G1 X100.691 Y87.181 E34.58316
G1 X100.577 Y86.895 E34.61226
G1 X100.433 Y86.624 E34.64126
G1 X100.26 Y86.37 E34.6703
G1 X100.061 Y86.135 E34.6994
G1 X99.838 Y85.923 E34.72848
G1 X99.593 Y85.737 E34.75754
G1 X99.33 Y85.579 E34.78654
G1 X99.051 Y85.45 E34.81559
G1 X98.76 Y85.352 E34.8446
G1 X98.46 Y85.285 E34.87365
G1 X98.154 Y85.252 E34.90274
G1 X97.854 Y85.251 E34.93109
G1 X97.54 Y85.285 E34.96093
G1 X97.24 Y85.352 E34.98998
G1 X96.949 Y85.45 E35.019
G1 X96.67 Y85.579 E35.04804
G1 X96.407 Y85.737 E35.07704
G1 X96.162 Y85.923 E35.10611
G1 X95.939 Y86.135 E35.13518
G1 X95.74 Y86.37 E35.16428
G1 X95.567 Y86.624 E35.19333
G1 X95.423 Y86.895 E35.22233
G1 X95.309 Y87.181 E35.25142
G1 X95.227 Y87.477 E35.28045
G1 X95.177 Y87.78 E35.30947
G1 X95.161 Y88.088 E35.33861
G1 X95.177 Y88.395 E35.36766
G1 X95.227 Y88.698 E35.39668
G1 X95.309 Y88.994 E35.42571
G1 X95.423 Y89.28 E35.4548
G1 X95.567 Y89.551 E35.48381
G1 X95.74 Y89.806 E35.51292
G1 X95.939 Y90.04 E35.54195
G1 X96.162 Y90.252 E35.57103
G1 X96.407 Y90.438 E35.6001
G1 X96.67 Y90.596 E35.62909
G1 X96.949 Y90.725 E35.65814
G1 X97.24 Y90.823 E35.68716
G1 X97.54 Y90.89 E35.7162
G1 X97.846 Y90.923 E35.74529
G1 X98.154 Y90.923 E35.7744
G1 X98.46 Y90.89 E35.80348
G1 X98.76 Y90.823 E35.83253
G1 X99.051 Y90.725 E35.86155
G1 X99.33 Y90.596 E35.89059
G1 X99.593 Y90.438 E35.91959
G1 X99.838 Y90.252 E35.94866
G1 X100.061 Y90.04 E35.97773
G1 X100.26 Y89.806 E36.00676
G1 X100.433 Y89.551 E36.03588
G1 X100.577 Y89.28 E36.06488
G1 X100.691 Y88.994 E36.09398
G1 X100.773 Y88.698 E36.123
G1 X100.823 Y88.395 E36.15202
G0 F4500 X100.833 Y88.195
G0 X101.257 Y88.215
G0 X102.375 Y95.888
G0 X102.8 Y95.888
G1 F1800 X120.2 Y95.888 E37.79632
G1 X120.2 Y81.908 E39.11743
G1 X144.634 Y81.908 E41.42644
G1 X144.634 Y140.902 E47.00138
G1 X144.583 Y141.004 E47.01215
G1 X144.423 Y141.05 E47.02789
G1 X144.252 Y141.079 E47.04428
G1 X144.064 Y141.092 E47.06209
G1 X143.887 Y141.085 E47.07882
G1 X143.712 Y141.06 E47.09553
G1 X143.529 Y141.013 E47.11339
G1 X143.369 Y140.953 E47.12953
G1 X143.207 Y140.872 E47.14665
G1 X143.052 Y140.774 E47.16398
G1 X142.915 Y140.665 E47.18052
G1 X142.781 Y140.532 E47.19836
G1 X142.672 Y140.4 E47.21454
G1 X142.572 Y140.247 E47.23181
G1 X142.488 Y140.083 E47.24923
G1 X142.426 Y139.925 E47.26527
G1 X142.378 Y139.747 E47.28269
G1 X142.349 Y139.566 E47.30001
G1 X142.339 Y139.377 E47.3179
G1 X142.339 Y137.583 E47.48743
G1 X142.323 Y137.28 E47.5161
G1 X142.273 Y136.977 E47.54512
G1 X142.191 Y136.681 E47.57415
G1 X142.077 Y136.395 E47.60324
G1 X141.933 Y136.124 E47.63224
G1 X141.76 Y135.87 E47.66129
G1 X141.561 Y135.635 E47.69039
G1 X141.338 Y135.423 E47.71946
G1 X141.093 Y135.237 E47.74853
G1 X140.83 Y135.079 E47.77753
G1 X140.551 Y134.95 E47.80657
G1 X140.26 Y134.852 E47.83559
G1 X139.96 Y134.785 E47.86464
G1 X139.654 Y134.752 E47.89372
G1 X139.346 Y134.752 E47.92283
G1 X139.04 Y134.785 E47.95191
G1 X138.74 Y134.852 E47.98096
G1 X138.449 Y134.95 E48.00998
G1 X138.17 Y135.079 E48.03903
G1 X137.907 Y135.237 E48.06802
G1 X137.661 Y135.423 E48.09716
G1 X137.439 Y135.635 E48.12617
G1 X137.24 Y135.869 E48.1552
G1 X137.067 Y136.124 E48.18432
G1 X136.923 Y136.395 E48.21332
G1 X136.809 Y136.681 E48.24242
G1 X136.727 Y136.977 E48.27144
G1 X136.677 Y137.28 E48.30046
G1 X136.661 Y137.583 E48.32914
G1 X136.661 Y138.588 E48.42411
G1 X86.339 Y138.588 E53.17954
G1 X86.339 Y137.583 E53.27451
G1 X86.323 Y137.28 E53.30318
G1 X86.273 Y136.977 E53.3322
G1 X86.191 Y136.681 E53.36123
G1 X86.077 Y136.395 E53.39032
G1 X85.933 Y136.124 E53.41932
G1 X85.76 Y135.869 E53.44844
G1 X85.561 Y135.635 E53.47747
G1 X85.338 Y135.423 E53.50655
G1 X85.093 Y135.237 E53.53562
G1 X84.83 Y135.079 E53.56461
G1 X84.551 Y134.95 E53.59366
G1 X84.26 Y134.852 E53.62268
G1 X83.96 Y134.785 E53.65172
G1 X83.654 Y134.752 E53.68081
G1 X83.346 Y134.752 E53.70991
G1 X83.04 Y134.785 E53.739
G1 X82.74 Y134.852 E53.76805
G1 X82.449 Y134.95 E53.79706
G1 X82.17 Y135.079 E53.82611
G1 X81.907 Y135.237 E53.85511
G1 X81.662 Y135.423 E53.88417
G1 X81.439 Y135.635 E53.91325
G1 X81.24 Y135.869 E53.94228
G1 X81.067 Y136.124 E53.9714
G1 X80.923 Y136.395 E54.0004
G1 X80.809 Y136.681 E54.02949
G1 X80.727 Y136.977 E54.05852
G1 X80.677 Y137.28 E54.08754
G1 X80.661 Y137.583 E54.11621
G1 X80.661 Y139.377 E54.28575
G1 X80.651 Y139.566 E54.30363
G1 X80.622 Y139.747 E54.32096
G1 X80.574 Y139.925 E54.33838
G1 X80.512 Y140.083 E54.35442
G1 X80.428 Y140.247 E54.37183
G1 X80.328 Y140.4 E54.3891
G1 X80.219 Y140.532 E54.40528
G1 X80.085 Y140.665 E54.42312
G1 X79.948 Y140.774 E54.43966
G1 X79.793 Y140.872 E54.45699
G1 X79.631 Y140.953 E54.47411
G1 X79.471 Y141.013 E54.49026
G1 X79.288 Y141.06 E54.50811
G1 X79.113 Y141.085 E54.52482
G1 X78.936 Y141.092 E54.54156
G1 X78.748 Y141.079 E54.55937
G1 X78.577 Y141.05 E54.57576
G1 X78.444 Y141.011 E54.58885
G1 X78.366 Y140.933 E54.59928
G1 X78.366 Y81.908 E60.17714
G1 X102.8 Y81.908 E62.48615
G1 X102.8 Y95.888 E63.80726
G0 F4500 X103 Y95.888
G0 X103 Y96.313
G0 X120.553 Y96.241
G0 X121.914 Y89.15
G0 X122.309 Y88.994
G1 F1800 X122.423 Y89.28 E63.83636
G1 X122.567 Y89.551 E63.86536
G1 X122.74 Y89.806 E63.89448
G1 X122.939 Y90.04 E63.92351
G1 X123.162 Y90.252 E63.95258
G1 X123.407 Y90.438 E63.98165
G1 X123.67 Y90.596 E64.01065
G1 X123.949 Y90.725 E64.03969
G1 X124.24 Y90.823 E64.06871
G1 X124.54 Y90.89 E64.09776
G1 X124.846 Y90.923 E64.12684
G1 X125.154 Y90.923 E64.15595
G1 X125.46 Y90.89 E64.18503
G1 X125.76 Y90.823 E64.21408
G1 X126.051 Y90.725 E64.2431
G1 X126.33 Y90.596 E64.27215
G1 X126.593 Y90.438 E64.30114
G1 X126.838 Y90.252 E64.33021
G1 X127.061 Y90.04 E64.35929
G1 X127.26 Y89.806 E64.38831
G1 X127.433 Y89.551 E64.41743
G1 X127.577 Y89.28 E64.44643
G1 X127.691 Y88.994 E64.47553
G1 X127.773 Y88.698 E64.50456
G1 X127.823 Y88.395 E64.53358
G1 X127.839 Y88.088 E64.56263
G1 X127.823 Y87.78 E64.59177
G1 X127.773 Y87.477 E64.62079
G1 X127.691 Y87.181 E64.64982
G1 X127.577 Y86.895 E64.67891
G1 X127.433 Y86.624 E64.70791
G1 X127.26 Y86.37 E64.73696
G1 X127.061 Y86.135 E64.76606
G1 X126.838 Y85.923 E64.79513
G1 X126.593 Y85.737 E64.8242
G1 X126.33 Y85.579 E64.85319
G1 X126.051 Y85.45 E64.88224
G1 X125.76 Y85.352 E64.91126
G1 X125.46 Y85.285 E64.94031
G1 X125.154 Y85.252 E64.96939
G1 X124.854 Y85.251 E64.99774
G1 X124.54 Y85.285 E65.02759
G1 X124.24 Y85.352 E65.05664
G1 X123.949 Y85.45 E65.08565
G1 X123.67 Y85.579 E65.1147
G1 X123.407 Y85.737 E65.1437
G1 X123.162 Y85.923 E65.17276
G1 X122.939 Y86.135 E65.20184
G1 X122.74 Y86.37 E65.23094
G1 X122.567 Y86.624 E65.25998
G1 X122.423 Y86.895 E65.28898
