;FLAVOR:UltiGCode
;TIME:6716
;MATERIAL:13662
;MATERIAL2:0
;NOZZLE_DIAMETER:0.4
;Generated with Cura_SteamEngine master

;LAYER_COUNT:197
;LAYER:0
M107
G0 F4500 X103.938 Y71.584 Z0.27
;TYPE:SKIRT
G1 F1800 X104.422 Y70.955 E0.075
G1 X104.899 Y70.443 E0.14113
G1 X105.002 Y70.342 E0.15476
G1 X105.596 Y69.816 E0.22974
G1 X106.24 Y69.352 E0.30475
G1 X106.927 Y68.955 E0.37973
G1 X107.651 Y68.63 E0.45473
G1 X108.403 Y68.379 E0.52964
G1 X109.178 Y68.205 E0.6047
G1 X109.965 Y68.109 E0.67963
G1 X110.516 Y68.09 E0.73173
G1 X112.484 Y68.09 E0.9177
G1 X113.276 Y68.13 E0.99264
G1 X114.061 Y68.249 E1.06767
G1 X114.829 Y68.447 E1.14262
G1 X115.574 Y68.722 E1.21767
G1 X116.287 Y69.069 E1.2926
G1 X116.962 Y69.487 E1.36763
G1 X117.591 Y69.97 E1.44257
G1 X118.025 Y70.369 E1.49828
G1 X118.128 Y70.471 E1.51198
G1 X118.663 Y71.057 E1.58697
G1 X119.136 Y71.694 E1.66194
G1 X119.543 Y72.376 E1.737
G1 X119.879 Y73.094 E1.81191
G1 X120.142 Y73.843 E1.88693
G1 X120.327 Y74.615 E1.96195
G1 X120.434 Y75.401 E2.03691
G1 X120.462 Y76.064 E2.09962
G1 X120.47 Y94.853 E3.87518
G1 X121.76 Y95.635 E4.01773
G1 X122.448 Y96.103 E4.09637
G1 X123.406 Y96.832 E4.21013
G1 X124.054 Y97.383 E4.29051
G1 X124.931 Y98.214 E4.40468
G1 X125.518 Y98.834 E4.48537
G1 X126.275 Y99.726 E4.59592
G1 X126.794 Y100.41 E4.67706
G1 X127.469 Y101.408 E4.79092
G1 X127.902 Y102.128 E4.87032
G1 X128.463 Y103.185 E4.9834
G1 X128.824 Y103.965 E5.06462
G1 X129.265 Y105.073 E5.17731
G1 X129.535 Y105.875 E5.25728
G1 X129.856 Y107.029 E5.37048
G1 X130.042 Y107.876 E5.45243
G1 X130.231 Y109.039 E5.56377
G1 X130.322 Y109.877 E5.64343
G1 X130.387 Y111.08 E5.75728
G1 X130.386 Y111.938 E5.83836
G1 X130.32 Y113.136 E5.95174
G1 X130.229 Y113.971 E6.03112
G1 X130.039 Y115.136 E6.14266
G1 X129.853 Y115.981 E6.22443
G1 X129.531 Y117.137 E6.33783
G1 X129.26 Y117.941 E6.41801
G1 X128.819 Y119.047 E6.53052
G1 X128.457 Y119.827 E6.61179
G1 X127.895 Y120.884 E6.72491
G1 X127.462 Y121.604 E6.80431
G1 X126.788 Y122.599 E6.91788
G1 X126.271 Y123.279 E6.9986
G1 X125.512 Y124.173 E7.10943
G1 X124.919 Y124.799 E7.19091
G1 X124.04 Y125.63 E7.30522
G1 X123.387 Y126.183 E7.38609
G1 X122.42 Y126.916 E7.50075
G1 X121.786 Y127.349 E7.57331
G1 X120.474 Y128.155 E7.71882
G1 X120.462 Y146.939 E9.49391
G1 X120.422 Y147.732 E9.56894
G1 X120.301 Y148.516 E9.6439
G1 X120.103 Y149.284 E9.71885
G1 X119.828 Y150.029 E9.7939
G1 X119.48 Y150.742 E9.86887
G1 X119.062 Y151.416 E9.94382
G1 X118.578 Y152.045 E10.01882
G1 X118.101 Y152.557 E10.08495
G1 X117.998 Y152.658 E10.09858
G1 X117.404 Y153.184 E10.17356
G1 X116.76 Y153.648 E10.24857
G1 X116.073 Y154.045 E10.32355
G1 X115.349 Y154.37 E10.39855
G1 X114.597 Y154.621 E10.47347
G1 X113.822 Y154.795 E10.54853
G1 X113.035 Y154.891 E10.62345
G1 X112.484 Y154.91 E10.67555
G1 X110.516 Y154.91 E10.86153
G1 X109.724 Y154.87 E10.93646
G1 X108.939 Y154.751 E11.01149
G1 X108.171 Y154.553 E11.08644
G1 X107.426 Y154.278 E11.16149
G1 X106.713 Y153.931 E11.23642
G1 X106.038 Y153.513 E11.31145
G1 X105.409 Y153.03 E11.38639
G1 X104.975 Y152.631 E11.44211
G1 X104.872 Y152.529 E11.4558
G1 X104.337 Y151.943 E11.53079
G1 X103.864 Y151.306 E11.60577
G1 X103.457 Y150.624 E11.68082
G1 X103.121 Y149.906 E11.75573
G1 X102.858 Y149.157 E11.83075
G1 X102.673 Y148.385 E11.90577
G1 X102.566 Y147.599 E11.98073
G1 X102.538 Y146.936 E12.04344
G1 X102.53 Y128.147 E13.819
G1 X101.236 Y127.363 E13.96198
G1 X100.548 Y126.894 E14.04066
G1 X99.593 Y126.167 E14.15408
G1 X98.946 Y125.617 E14.23433
G1 X98.069 Y124.786 E14.3485
G1 X97.48 Y124.163 E14.42952
G1 X96.721 Y123.268 E14.54042
G1 X96.204 Y122.587 E14.62122
G1 X95.531 Y121.592 E14.73474
G1 X95.098 Y120.872 E14.81413
G1 X94.537 Y119.815 E14.92722
G1 X94.176 Y119.035 E15.00844
G1 X93.735 Y117.927 E15.12113
G1 X93.465 Y117.125 E15.2011
G1 X93.144 Y115.971 E15.31429
G1 X92.957 Y115.12 E15.39663
G1 X92.768 Y113.953 E15.50835
G1 X92.679 Y113.12 E15.58752
G1 X92.614 Y111.921 E15.70099
G1 X92.614 Y111.063 E15.78207
G1 X92.68 Y109.861 E15.89583
G1 X92.771 Y109.021 E15.97567
G1 X92.961 Y107.86 E16.08685
G1 X93.147 Y107.019 E16.16824
G1 X93.469 Y105.863 E16.28164
G1 X93.74 Y105.059 E16.36182
G1 X94.181 Y103.953 E16.47434
G1 X94.543 Y103.173 E16.5556
G1 X95.105 Y102.116 E16.66873
G1 X95.538 Y101.397 E16.74805
G1 X96.214 Y100.399 E16.86196
G1 X96.733 Y99.716 E16.94302
G1 X97.49 Y98.825 E17.0535
G1 X98.081 Y98.201 E17.13472
G1 X98.96 Y97.37 E17.24903
G1 X99.613 Y96.817 E17.3299
G1 X100.58 Y96.084 E17.44456
G1 X101.214 Y95.651 E17.51712
G1 X102.526 Y94.845 E17.66263
G1 X102.538 Y76.061 E19.43772
G1 X102.578 Y75.268 E19.51275
G1 X102.699 Y74.484 E19.58771
G1 X102.897 Y73.716 E19.66266
G1 X103.172 Y72.971 E19.73771
G1 X103.52 Y72.258 E19.81269
G1 X103.938 Y71.584 E19.88763
G0 F4500 X104.286 Y71.698
G1 F1800 X104.768 Y71.09 E19.96095
G1 X105.144 Y70.693 E20.01263
G1 X105.247 Y70.592 E20.02626
G1 X105.828 Y70.078 E20.09956
G1 X106.459 Y69.627 E20.17286
G1 X107.133 Y69.243 E20.24616
G1 X107.843 Y68.931 E20.31945
G1 X108.581 Y68.693 E20.39273
G1 X109.34 Y68.532 E20.46605
G1 X110.112 Y68.451 E20.53941
G1 X110.516 Y68.44 E20.5776
G1 X112.484 Y68.44 E20.76357
G1 X113.259 Y68.48 E20.83691
G1 X114.025 Y68.599 E20.91016
G1 X114.775 Y68.797 E20.98347
G1 X115.501 Y69.071 E21.0568
G1 X116.194 Y69.418 E21.13004
G1 X116.848 Y69.835 E21.20333
G1 X117.456 Y70.317 E21.27665
G1 X117.779 Y70.618 E21.31838
G1 X117.882 Y70.72 E21.33208
G1 X118.404 Y71.294 E21.40539
G1 X118.865 Y71.918 E21.47871
G1 X119.258 Y72.586 E21.55195
G1 X119.581 Y73.291 E21.62523
G1 X119.83 Y74.026 E21.69857
G1 X120.002 Y74.782 E21.77183
G1 X120.094 Y75.552 E21.84512
G1 X120.112 Y76.064 E21.89353
G1 X120.12 Y95.05 E23.68771
G1 X121.579 Y95.934 E23.84892
G1 X122.236 Y96.382 E23.92406
G1 X123.194 Y97.111 E24.03783
G1 X123.813 Y97.637 E24.11459
G1 X124.69 Y98.468 E24.22876
G1 X125.251 Y99.061 E24.3059
G1 X126.008 Y99.953 E24.41646
G1 X126.504 Y100.606 E24.49395
G1 X127.179 Y101.604 E24.60781
G1 X127.593 Y102.292 E24.68369
G1 X128.154 Y103.349 E24.79677
G1 X128.499 Y104.094 E24.87436
G1 X128.94 Y105.202 E24.98705
G1 X129.198 Y105.968 E25.06343
G1 X129.519 Y107.122 E25.17663
G1 X129.697 Y107.932 E25.255
G1 X129.886 Y109.095 E25.36634
G1 X129.972 Y109.896 E25.44247
G1 X130.037 Y111.099 E25.55632
G1 X130.037 Y111.919 E25.63381
G1 X129.971 Y113.117 E25.7472
G1 X129.884 Y113.914 E25.82296
G1 X129.694 Y115.079 E25.93451
G1 X129.516 Y115.887 E26.01269
G1 X129.194 Y117.043 E26.12609
G1 X128.935 Y117.811 E26.20269
G1 X128.494 Y118.917 E26.31521
G1 X128.148 Y119.663 E26.39292
G1 X127.586 Y120.72 E26.50604
G1 X127.172 Y121.407 E26.58184
G1 X126.498 Y122.402 E26.69541
G1 X126.004 Y123.052 E26.77256
G1 X125.245 Y123.946 E26.88339
G1 X124.679 Y124.544 E26.9612
G1 X123.8 Y125.375 E27.07551
G1 X123.176 Y125.904 E27.15281
G1 X122.209 Y126.637 E27.26748
G1 X121.603 Y127.051 E27.33684
G1 X120.124 Y127.96 E27.50089
G1 X120.112 Y146.939 E29.2944
G1 X120.072 Y147.713 E29.36764
G1 X119.952 Y148.48 E29.44101
G1 X119.753 Y149.23 E29.51434
G1 X119.479 Y149.955 E29.58758
G1 X119.131 Y150.649 E29.66094
G1 X118.714 Y151.302 E29.73416
G1 X118.232 Y151.91 E29.80748
G1 X117.856 Y152.307 E29.85915
G1 X117.753 Y152.408 E29.87279
G1 X117.172 Y152.922 E29.94609
G1 X116.541 Y153.373 E30.01939
G1 X115.867 Y153.757 E30.09269
G1 X115.157 Y154.069 E30.16598
G1 X114.419 Y154.307 E30.23926
G1 X113.66 Y154.468 E30.31258
G1 X112.888 Y154.549 E30.38593
G1 X112.484 Y154.56 E30.42413
G1 X110.516 Y154.56 E30.6101
G1 X109.741 Y154.52 E30.68344
G1 X108.975 Y154.401 E30.75669
G1 X108.225 Y154.203 E30.83
G1 X107.499 Y153.929 E30.90333
G1 X106.806 Y153.582 E30.97657
G1 X106.152 Y153.165 E31.04986
G1 X105.544 Y152.683 E31.12318
G1 X105.221 Y152.382 E31.16491
G1 X105.118 Y152.28 E31.1786
G1 X104.596 Y151.706 E31.25192
G1 X104.135 Y151.082 E31.32524
G1 X103.742 Y150.414 E31.39848
G1 X103.419 Y149.709 E31.47176
G1 X103.17 Y148.974 E31.5451
G1 X102.998 Y148.218 E31.61836
G1 X102.906 Y147.448 E31.69165
G1 X102.888 Y146.936 E31.74006
G1 X102.88 Y127.949 E33.53433
G1 X101.418 Y127.063 E33.69588
G1 X100.76 Y126.615 E33.77111
G1 X99.805 Y125.888 E33.88453
G1 X99.187 Y125.363 E33.96116
G1 X98.31 Y124.532 E34.07533
G1 X97.747 Y123.937 E34.15274
G1 X96.988 Y123.042 E34.26363
G1 X96.494 Y122.391 E34.34086
G1 X95.821 Y121.396 E34.45438
G1 X95.407 Y120.708 E34.53026
G1 X94.846 Y119.651 E34.64334
G1 X94.501 Y118.906 E34.72093
G1 X94.06 Y117.798 E34.83362
G1 X93.802 Y117.032 E34.91
G1 X93.481 Y115.878 E35.0232
G1 X93.303 Y115.064 E35.10194
G1 X93.114 Y113.897 E35.21365
G1 X93.028 Y113.101 E35.28931
G1 X92.963 Y111.902 E35.40279
G1 X92.963 Y111.082 E35.48028
G1 X93.029 Y109.88 E35.59404
G1 X93.117 Y109.078 E35.67028
G1 X93.307 Y107.917 E35.78145
G1 X93.484 Y107.113 E35.85925
G1 X93.806 Y105.957 E35.97265
G1 X94.065 Y105.189 E36.04924
G1 X94.506 Y104.083 E36.16176
G1 X94.852 Y103.337 E36.23947
G1 X95.414 Y102.28 E36.3526
G1 X95.828 Y101.593 E36.4284
G1 X96.504 Y100.595 E36.54231
G1 X96.999 Y99.943 E36.61967
G1 X97.756 Y99.052 E36.73015
G1 X98.321 Y98.456 E36.80776
G1 X99.2 Y97.625 E36.92207
G1 X99.824 Y97.096 E36.99938
G1 X100.791 Y96.363 E37.11405
G1 X101.397 Y95.949 E37.1834
G1 X102.876 Y95.04 E37.34745
G1 X102.888 Y76.061 E39.14097
G1 X102.928 Y75.287 E39.21421
G1 X103.048 Y74.52 E39.28757
G1 X103.247 Y73.77 E39.3609
G1 X103.521 Y73.045 E39.43414
G1 X103.869 Y72.351 E39.50751
G1 X104.286 Y71.698 E39.58073
G0 F4500 X104.634 Y71.814
G1 F1800 X105.114 Y71.229 E39.65224
G1 X105.389 Y70.943 E39.68973
G1 X105.492 Y70.842 E39.70336
G1 X106.06 Y70.341 E39.77494
G1 X106.678 Y69.903 E39.84652
G1 X107.339 Y69.532 E39.91815
G1 X108.034 Y69.233 E39.98965
G1 X108.758 Y69.009 E40.06126
G1 X109.501 Y68.862 E40.13284
G1 X110.516 Y68.79 E40.229
G1 X112.484 Y68.79 E40.41497
G1 X113.24 Y68.83 E40.48651
G1 X113.988 Y68.949 E40.55809
G1 X114.719 Y69.147 E40.62966
G1 X115.426 Y69.421 E40.70131
G1 X116.099 Y69.767 E40.77282
G1 X116.732 Y70.183 E40.8444
G1 X117.533 Y70.867 E40.94394
G1 X117.636 Y70.969 E40.95764
G1 X118.145 Y71.529 E41.02915
G1 X118.592 Y72.141 E41.10077
G1 X118.973 Y72.795 E41.1723
G1 X119.282 Y73.487 E41.24391
G1 X119.517 Y74.207 E41.31549
G1 X119.674 Y74.948 E41.38707
G1 X119.762 Y76.064 E41.49285
G1 X119.77 Y95.248 E43.30574
G1 X121.397 Y96.234 E43.48552
G1 X122.024 Y96.66 E43.55716
G1 X122.982 Y97.389 E43.67092
G1 X123.572 Y97.891 E43.74413
G1 X124.449 Y98.722 E43.8583
G1 X124.985 Y99.287 E43.93189
G1 X125.742 Y100.179 E44.04245
G1 X126.214 Y100.802 E44.11631
G1 X126.889 Y101.8 E44.23017
G1 X127.284 Y102.456 E44.30253
G1 X127.845 Y103.513 E44.41562
G1 X128.173 Y104.224 E44.48961
G1 X128.614 Y105.332 E44.60231
G1 X128.861 Y106.062 E44.67513
G1 X129.182 Y107.216 E44.78833
G1 X129.351 Y107.988 E44.86301
G1 X129.54 Y109.151 E44.97435
G1 X129.623 Y109.915 E45.04698
G1 X129.688 Y111.118 E45.16083
G1 X129.687 Y111.9 E45.23472
G1 X129.621 Y113.098 E45.34811
G1 X129.538 Y113.858 E45.42035
G1 X129.348 Y115.023 E45.5319
G1 X129.179 Y115.793 E45.6064
G1 X128.857 Y116.949 E45.7198
G1 X128.61 Y117.681 E45.7928
G1 X128.169 Y118.787 E45.90532
G1 X127.839 Y119.498 E45.9794
G1 X127.277 Y120.555 E46.09253
G1 X126.882 Y121.211 E46.16489
G1 X126.208 Y122.206 E46.27846
G1 X125.738 Y122.826 E46.35198
G1 X124.979 Y123.72 E46.4628
G1 X124.438 Y124.29 E46.53707
G1 X123.559 Y125.121 E46.65138
G1 X122.964 Y125.625 E46.72507
G1 X121.997 Y126.358 E46.83973
G1 X121.42 Y126.753 E46.90581
G1 X119.775 Y127.764 E47.08828
G1 X119.762 Y146.939 E48.90032
G1 X119.722 Y147.695 E48.97186
G1 X119.602 Y148.443 E49.04345
G1 X119.403 Y149.174 E49.11504
G1 X119.129 Y149.88 E49.18661
G1 X118.782 Y150.553 E49.25816
G1 X118.366 Y151.186 E49.32974
G1 X117.886 Y151.771 E49.40125
G1 X117.611 Y152.057 E49.43874
G1 X117.508 Y152.158 E49.45238
G1 X116.94 Y152.659 E49.52395
G1 X116.322 Y153.097 E49.59553
G1 X115.661 Y153.468 E49.66716
G1 X114.966 Y153.767 E49.73866
G1 X114.242 Y153.991 E49.81028
G1 X113.499 Y154.138 E49.88185
G1 X112.484 Y154.21 E49.97801
G1 X110.516 Y154.21 E50.16399
G1 X109.76 Y154.17 E50.23553
G1 X109.012 Y154.051 E50.3071
G1 X108.281 Y153.853 E50.37867
G1 X107.574 Y153.579 E50.45032
G1 X106.901 Y153.233 E50.52184
G1 X106.268 Y152.817 E50.59342
G1 X105.467 Y152.133 E50.69295
G1 X105.364 Y152.031 E50.70665
G1 X104.855 Y151.471 E50.77817
G1 X104.408 Y150.859 E50.84978
G1 X104.027 Y150.205 E50.92131
G1 X103.718 Y149.513 E50.99293
G1 X103.483 Y148.793 E51.0645
G1 X103.326 Y148.052 E51.13608
G1 X103.238 Y146.936 E51.24187
G1 X103.23 Y127.752 E53.05476
G1 X101.599 Y126.764 E53.23496
G1 X100.972 Y126.337 E53.30665
G1 X100.017 Y125.61 E53.42007
G1 X99.428 Y125.109 E53.49314
G1 X98.551 Y124.278 E53.60731
G1 X98.014 Y123.711 E53.68111
G1 X97.255 Y122.816 E53.79201
G1 X96.784 Y122.195 E53.86566
G1 X96.111 Y121.2 E53.97918
G1 X95.716 Y120.544 E54.05154
G1 X95.155 Y119.487 E54.16462
G1 X94.827 Y118.776 E54.23862
G1 X94.386 Y117.668 E54.35131
G1 X94.139 Y116.938 E54.42414
G1 X93.818 Y115.784 E54.53733
G1 X93.648 Y115.008 E54.6124
G1 X93.459 Y113.841 E54.72412
G1 X93.378 Y113.082 E54.79625
G1 X93.313 Y111.883 E54.90973
G1 X93.313 Y111.102 E54.98353
G1 X93.379 Y109.9 E55.09729
G1 X93.462 Y109.134 E55.1701
G1 X93.652 Y107.973 E55.28128
G1 X93.821 Y107.207 E55.3554
G1 X94.143 Y106.051 E55.4688
G1 X94.39 Y105.319 E55.54181
G1 X94.831 Y104.213 E55.65433
G1 X95.161 Y103.502 E55.7284
G1 X95.723 Y102.445 E55.84153
G1 X96.118 Y101.789 E55.91389
G1 X96.794 Y100.791 E56.0278
G1 X97.266 Y100.169 E56.10159
G1 X98.023 Y99.278 E56.21208
G1 X98.562 Y98.71 E56.28607
G1 X99.441 Y97.879 E56.40038
G1 X100.036 Y97.375 E56.47407
G1 X101.003 Y96.642 E56.58874
G1 X101.58 Y96.247 E56.65482
G1 X103.225 Y95.236 E56.83728
G1 X103.238 Y76.061 E58.64932
G1 X103.278 Y75.305 E58.72086
G1 X103.398 Y74.557 E58.79245
G1 X103.597 Y73.826 E58.86405
G1 X103.871 Y73.12 E58.93561
G1 X104.218 Y72.447 E59.00717
G1 X104.634 Y71.814 E59.07875
G0 F4500 X104.981 Y71.934
G1 F1800 X105.635 Y71.193 E59.17214
G1 X105.738 Y71.092 E59.18578
G1 X106.292 Y70.604 E59.25554
G1 X106.896 Y70.179 E59.32533
G1 X107.543 Y69.822 E59.39517
G1 X108.224 Y69.536 E59.46497
G1 X108.932 Y69.326 E59.53475
G1 X109.659 Y69.194 E59.60458
G1 X110.516 Y69.14 E59.68572
G1 X112.484 Y69.14 E59.8717
G1 X113.222 Y69.18 E59.94154
G1 X113.95 Y69.299 E60.01125
G1 X114.662 Y69.497 E60.08109
G1 X115.348 Y69.77 E60.15086
G1 X116.001 Y70.116 E60.2207
G1 X116.613 Y70.53 E60.29052
G1 X117.286 Y71.116 E60.37485
G1 X117.389 Y71.218 E60.38855
G1 X117.885 Y71.765 E60.45833
G1 X118.319 Y72.363 E60.52815
G1 X118.686 Y73.004 E60.59795
G1 X118.981 Y73.681 E60.66774
G1 X119.202 Y74.386 E60.73756
G1 X119.345 Y75.111 E60.80739
G1 X119.412 Y76.064 E60.89767
G1 X119.421 Y95.445 E62.72918
G1 X121.216 Y96.533 E62.92753
G1 X121.812 Y96.939 E62.99568
G1 X122.77 Y97.668 E63.10944
G1 X123.331 Y98.145 E63.17903
G1 X124.208 Y98.976 E63.2932
G1 X124.718 Y99.514 E63.36326
G1 X125.475 Y100.406 E63.47381
G1 X125.924 Y100.998 E63.54403
G1 X126.599 Y101.996 E63.65788
G1 X126.975 Y102.62 E63.72673
G1 X127.536 Y103.677 E63.83981
G1 X127.848 Y104.353 E63.91017
G1 X128.289 Y105.461 E64.02287
G1 X128.523 Y106.156 E64.09217
G1 X128.844 Y107.31 E64.20536
G1 X129.006 Y108.044 E64.27639
G1 X129.195 Y109.207 E64.38774
G1 X129.273 Y109.934 E64.45683
G1 X129.338 Y111.137 E64.57068
G1 X129.338 Y111.88 E64.6409
G1 X129.272 Y113.078 E64.75428
G1 X129.193 Y113.802 E64.8231
G1 X129.003 Y114.967 E64.93465
G1 X128.842 Y115.699 E65.00548
G1 X128.52 Y116.855 E65.11888
G1 X128.285 Y117.552 E65.18839
G1 X127.844 Y118.658 E65.30091
G1 X127.53 Y119.334 E65.37134
G1 X126.968 Y120.391 E65.48447
G1 X126.593 Y121.015 E65.55327
G1 X125.919 Y122.01 E65.66684
G1 X125.471 Y122.599 E65.73677
G1 X124.712 Y123.493 E65.84759
G1 X124.198 Y124.036 E65.91825
G1 X123.319 Y124.867 E66.03256
G1 X122.753 Y125.346 E66.10263
G1 X121.786 Y126.079 E66.2173
G1 X121.237 Y126.455 E66.28018
G1 X119.553 Y127.49 E66.46697
G1 X119.425 Y127.559 E66.48071
G1 X119.412 Y146.938 E68.31203
G1 X119.372 Y147.676 E68.38187
G1 X119.252 Y148.405 E68.45169
G1 X119.054 Y149.116 E68.52144
G1 X118.78 Y149.803 E68.59133
G1 X118.434 Y150.455 E68.66108
G1 X118.019 Y151.066 E68.73088
G1 X117.365 Y151.807 E68.82428
